img/svg/bascket.svg

<svg width="18" height="17" viewBox="0 0 18 17" fill="none" xmlns="http://www.w3.org/2000/svg">
<path d="M12.7654 13.4814H8.32207C5.7102 13.4814 3.59204 11.3553 3.59204 8.75135V2.56409H14.788C16.2851 2.56409 17.4955 3.78243 17.4955 5.27151V8.75135C17.5034 11.3553 15.3773 13.4814 12.7654 13.4814ZM4.70686 3.67891V8.75135C4.70686 10.7421 6.33132 12.3666 8.32207 12.3666H12.7654C14.7562 12.3666 16.3806 10.7421 16.3806 8.75135V5.27151C16.3806 4.39558 15.664 3.67891 14.788 3.67891H4.70686Z" fill="#FFF5DF"/>
<path d="M13.3069 15C12.9964 15 12.7495 15.2469 12.7495 15.5574C12.7495 15.868 12.9964 16.1148 13.3069 16.1148C13.6175 16.1148 13.8643 15.868 13.8643 15.5574C13.8643 15.2548 13.6175 15 13.3069 15Z" fill="#FFF5DF"/>
<path d="M7.78861 15C7.47805 15 7.2312 15.2469 7.2312 15.5574C7.2312 15.868 7.47805 16.1148 7.78861 16.1148C8.09917 16.1148 8.34602 15.868 8.34602 15.5574C8.33806 15.2548 8.09121 15 7.78861 15Z" fill="#FFF5DF"/>
<path d="M4.1495 5.47059C3.83894 5.47059 3.59209 5.22373 3.59209 4.91318V2.70742C3.59209 1.83149 2.87542 1.11482 1.99948 1.11482H1.16337C0.85281 1.11482 0.605957 0.867969 0.605957 0.557411C0.605957 0.246854 0.85281 0 1.16337 0H1.99948C3.49653 0 4.70691 1.21834 4.70691 2.70742V4.91318C4.70691 5.21577 4.46005 5.47059 4.1495 5.47059Z" fill="#FFF5DF"/>
</svg>

<svg width="18" height="17" fill="none" xmlns="http://www.w3.org/2000/svg"><path d="M12.765 13.481H8.322a4.736 4.736 0 01-4.73-4.73V2.564h11.196a2.71 2.71 0 012.707 2.708v3.48c.008 2.603-2.118 4.73-4.73 4.73zM4.707 3.68v5.07a3.623 3.623 0 003.615 3.616h4.443a3.623 3.623 0 003.616-3.616V5.27c0-.875-.717-1.592-1.593-1.592H4.707zm8.6 11.32a.554.554 0 00-.558.557c0 .311.247.558.558.558.31 0 .557-.247.557-.558a.559.559 0 00-.557-.557zm-5.518 0a.554.554 0 00-.558.557c0 .311.247.558.558.558.31 0 .557-.247.557-.558A.57.57 0 007.789 15z" fill="#FFF5DF"/><path d="M4.15 5.47a.554.554 0 01-.558-.557V2.707c0-.876-.717-1.592-1.593-1.592h-.836A.554.554 0 01.606.557C.606.247.853 0 1.163 0H2a2.71 2.71 0 012.708 2.707v2.206a.559.559 0 01-.558.558z" fill="#FFF5DF"/></svg>
